X:86
T:Abbey Reel, The
T:Reddigan's
O:england
R:reel
D:Paul McGrattan: The Frost Is All Over
D:Tommy Keane: The Piper's Apron
M:C|
K:Ador
~A3B A2GE|A2GA BddB|~A3B AGEF|1 ~G3A BedB:|2 ~G3A Bd~d2||
eg~g2 a2ba|gabg aged|eg~g2 a2ga|bgaf gedg|
eg~g2 agbg|agbg aged|eg~g2 a2ga|bgaf gedB||
"variations"
|:~A3B A2GE|A2GA BedB|1 ~A3B AGED|~G3A BGdB:|2 AdBG AGED|~G3A BGBd||
eg~g2 a2ge|gabg aged|eg~g2 a2ga|bgaf ged2|
eg~g2 ageg|agbg ageg|dg~g2 a2ga|b2af gedB||


